X:1
T:Polska efter Bleck och Gssa Anders d..
R:Polska
Z:Henrik berg, 090103
O:Orsa, Dalarna
S:Svenska Ltar
M:3/4
L:1/8
K:Ddor
|:{ab}a>g{fg}f2e2|{de}d{ed}c AB|{Bc}BAA4::A2de {^cB}^c>d|e2f/2a/2f/2d/2 ez/2^c/2|A2de {^cB}^c>d|e2f/2a/2f/2d/2 ez/2e/2|a>b a3/2{ba}f/2 a3/2{ba}g/2|e<fd4:|
